X: 163
T:Prussian Grand Waltz. JaW.163
M:3/4
L:1/8
Q:120
S:James Winder Ms, Lancashire, 1835-41
R:Waltz
O:England
A:Wyresdale,Lancashire
H:1/8
Z:vmp.Chris Partington, Aug 2004
K:D
(ABc)|"$".d2.d2.d2|d4d'c'|(bagfed)|c2e2(Ac)|!
.e2.e2.e2|e4(ag)|(fedcBA|d4:|!
|:{e}(dc)|dfgabc'|d'4a2|(a2g2e2)|(g2f2d2)|!
(dfgabc')|d'4a2|abagfe|d4:|!
|:de|.f2.f2 (fg)|.e2.e2 (ef)|.d2.d2 (df)|(ecA2) (de)|!
.f2.f2 (fg)|.e2.e2 (ef)|(dA)(df)ed|d4:|]
